public/avatar/shoe/178.svg

<svg xmlns:xlink="http://www.w3.org/1999/xlink" height="38.3" width="36.05" xmlns="http://www.w3.org/2000/svg"><g transform="translate(23.8 14.85)"><use height="20.95" transform="translate(-11.7 -6.2)" width="19.5" xlink:href="#a"/><use height="16.55" transform="translate(-10.7 -5.05)" width="17.5" xlink:href="#b"/><use height="15.75" transform="translate(-10.65 -5.05)" width="17.45" xlink:href="#c"/><use height="11.55" transform="translate(-1.55 -.25)" width="6.7" xlink:href="#d"/><use height="7.5" transform="translate(3.65 1.15)" width="3.15" xlink:href="#e"/><use height="9.6" transform="translate(-10.7 4.15)" width="17.45" xlink:href="#f"/></g><defs><path d="M9.6-6.45v.05l.15 3.15v1.4q0 4.7-.75 6l-.05.1Q7.55 6.8 5.5 8.35l-1.3.85-.85.45-.1.05-.85.3-.05.05-.95.25h-.05l-.25.05-.35.05H.7l-.25.05H.4l-.25.05-7.65-.55-.2-.05-.75-.4-.05-.05-.9-.95-.05-.1-.3-1.95v-.2l.15-1.35-.05.05q.3-1.9 1.8-3.15 3.1-2.7 5.8-6.6-1.3-1.15-1.15-2.35l.25-1q.9-1.3 2.6-1.85l2.05-.35 1.85-.1 2.9.4q2.95.9 3.15 3.6" fill-rule="evenodd" transform="translate(9.75 10.45)" id="g"/><path d="m2.95-3.35-.2.3q-.15 1-1.1 3.2l-.15.3-.75 1.4-.05.2L.6 2l-.25.05-2 .3q-.65-.2-.75-.6l1.3-2V-.3l1.15-2v-.05L.3-2.9v-.3l-.25-.25-1.15-.8q-1.15-.9-1.1-1.8l.55-1.05 1.35-.85 2.85-.3q2 .05 3.65 1.15.5.5.6 1.15.05.75-.3 1.3l-.1.1-1 .65.15-.05-.05.05-.15.05-.15.05-.4.15-.7.15-.5.05-.3-.05h-.05l-.3.15m2.1.65.5-.15h-.2l.15-.05.05-.05h.2l.55-.3.7-.55.2-.1.1-.15q.6-.85.5-2-.05-.8-.5-1.4 1.15.75 1.3 2.15l.15 3.05V-.1L8.7 1.4 8.6.95 7.85 2.5 6.6 4.25l-1 1.2q-1.45 1.5-2.75 2.1l-.75.3-1.25.25-4.3.2q-4.5-.1-5.2-1.35l-.1.05.05-.65.05-.15v-.05q.2-1.55 1.45-2.55Q-4 .85-1.25-3.1l.45.3-.05.05-.4.75-.7 1.2-1.4 2.2-.1.3q.05 1.15 1.55 1.6l2.4-.25q.45.15 1-.6l.95-1.6L2.5.7V.65l1.15-3.1.55-.05h.15l.15-.05.55-.15" fill="#911e79" fill-rule="evenodd" transform="translate(8.75 8.25)" id="h"/><path d="m3.2-3.1-.3.15-.2.3q-.15 1-1.1 3.2l-.15.3-.75 1.4-.05.2-.1-.05-.25.05-2 .3q-.65-.2-.75-.6l1.3-2V.1L0-1.9v-.05l.25-.55v-.3L0-3.05l-1.15-.8q-1.15-.9-1.1-1.8.05-.6.55-1.05l1.35-.85 2.85-.3q2 .05 3.65 1.15.5.5.6 1.15.05.75-.3 1.3l-.1.1q-.4.4-1 .65l.15-.05-.05.05-.15.05-.15.05-.4.15-.7.15-.5.05-.3-.05H3.2m4.55-2.55q-.05-.8-.5-1.4 1.15.75 1.3 2.15l.15 3.05q-.45-1.35-1.45-1.8.6-.85.5-2M3.35 1.2v.05l2.4.15q-1 2.1-3.9 4.8-2.55 1.7-6.1 1.7-2.45 0-4.5-1.15l.05-.15v-.05Q-8.5 5-7.25 4q3.2-2.75 5.95-6.7l.45.3-.05.05-.4.75-.45.25-.75.7.5.25-1.4 2.2-.1.3q.05 1.15 1.55 1.6l2.4-.25q.45.15 1-.6l.95-1.6.05-.15.9.1" fill="#ff20ee" fill-rule="evenodd" transform="translate(8.75 7.85)" id="i"/><path d="M3.35-5.75Q1.7-4.55 1.1-1.8l-.1.3-1.15 3.7-1.55 3.35-1.65.25 1.3-2.35q1-2.3 1.75-5.1L-.25-2q.4-1.8 1.3-3.05l.65-.15.7-.15h-.3l.2-.05.1-.05h.25l.7-.3" fill="#fff" fill-rule="evenodd" transform="translate(3.35 5.75)" id="j"/><path d="m1.55-3.7.05-.05v1.95l-.3.6L.7.75V.8L-.55 2.55l-1 1.2.75-2L.15-1.7q.4-1 1.4-2" fill="#e3bbd8" fill-rule="evenodd" transform="translate(1.55 3.75)" id="k"/><path d="M8.7-4.35q-.1 2.4-.55 3.25l-.1.15Q6.75 1.4 4.9 2.85l-1.15.75-.05.05-.8.4-.85.35-.85.2-.2.05-.45.05-.2.05h-.1l-.3.05-7.3-.55-.55-.3-.65-.65-.2-1.55v-.5l.1-.05q.7 1.25 5.2 1.35l4.3-.2L2.1 2.1l.75-.3q1.3-.6 2.75-2.1l1-1.2 1.25-1.75.75-1.55.1.45" fill="#2d001a" fill-rule="evenodd" transform="translate(8.75 4.8)" id="l"/><use height="20.95" width="19.5" xlink:href="#g" id="a"/><use height="16.55" width="17.5" xlink:href="#h" id="b"/><use height="15.75" width="17.45" xlink:href="#i" id="c"/><use height="11.55" width="6.7" xlink:href="#j" id="d"/><use height="7.5" width="3.15" xlink:href="#k" id="e"/><use height="9.6" width="17.45" xlink:href="#l" id="f"/></defs></svg>

<?xml version="1.0" encoding="UTF-8" standalone="no"?>
<svg xmlns:xlink="http://www.w3.org/1999/xlink" height="38.3px" width="36.05px" xmlns="http://www.w3.org/2000/svg">
  <g transform="matrix(1.0, 0.0, 0.0, 1.0, 23.8, 14.85)">
    <use height="20.95" transform="matrix(1.0, 0.0, 0.0, 1.0, -11.7, -6.2)" width="19.5" xlink:href="#sprite0"/>
    <use height="16.55" transform="matrix(1.0, 0.0, 0.0, 1.0, -10.7, -5.05)" width="17.5" xlink:href="#sprite1"/>
    <use height="15.75" transform="matrix(1.0, 0.0, 0.0, 1.0, -10.65, -5.05)" width="17.45" xlink:href="#sprite2"/>
    <use height="11.55" transform="matrix(1.0, 0.0, 0.0, 1.0, -1.55, -0.25)" width="6.7" xlink:href="#sprite3"/>
    <use height="7.5" transform="matrix(1.0, 0.0, 0.0, 1.0, 3.65, 1.15)" width="3.15" xlink:href="#sprite4"/>
    <use height="9.6" transform="matrix(1.0, 0.0, 0.0, 1.0, -10.7, 4.15)" width="17.45" xlink:href="#sprite5"/>
  </g>
  <defs>
    <g id="sprite0" transform="matrix(1.0, 0.0, 0.0, 1.0, 9.75, 10.45)">
      <use height="20.95" transform="matrix(1.0, 0.0, 0.0, 1.0, -9.75, -10.45)" width="19.5" xlink:href="#shape0"/>
    </g>
    <g id="shape0" transform="matrix(1.0, 0.0, 0.0, 1.0, 9.75, 10.45)">
      <path d="M9.6 -6.45 L9.6 -6.4 9.75 -3.25 9.75 -2.7 9.75 -2.45 9.75 -1.85 Q9.75 2.85 9.0 4.15 L8.95 4.25 Q7.55 6.8 5.5 8.35 L4.2 9.2 3.35 9.65 3.25 9.7 2.4 10.0 2.35 10.05 1.4 10.3 1.35 10.3 1.1 10.35 0.75 10.4 0.7 10.4 0.45 10.45 0.4 10.45 0.15 10.5 -7.5 9.95 -7.7 9.9 -8.45 9.5 -8.5 9.45 -9.4 8.5 -9.45 8.4 -9.75 6.45 -9.75 6.3 -9.75 6.25 -9.6 4.9 -9.65 4.95 Q-9.35 3.05 -7.85 1.8 -4.75 -0.9 -2.05 -4.8 -3.35 -5.95 -3.2 -7.15 L-2.95 -8.15 Q-2.05 -9.45 -0.35 -10.0 L1.7 -10.35 3.55 -10.45 6.45 -10.05 Q9.4 -9.15 9.6 -6.45" fill="#000000" fill-rule="evenodd" stroke="none"/>
    </g>
    <g id="sprite1" transform="matrix(1.0, 0.0, 0.0, 1.0, 8.75, 8.25)">
      <use height="16.55" transform="matrix(1.0, 0.0, 0.0, 1.0, -8.75, -8.25)" width="17.5" xlink:href="#shape1"/>
    </g>
    <g id="shape1" transform="matrix(1.0, 0.0, 0.0, 1.0, 8.75, 8.25)">
      <path d="M2.95 -3.35 L2.75 -3.05 Q2.6 -2.05 1.65 0.15 L1.5 0.45 0.75 1.85 0.7 2.05 0.6 2.0 0.35 2.05 -1.65 2.35 Q-2.3 2.15 -2.4 1.75 L-1.1 -0.25 -1.1 -0.3 0.05 -2.3 0.05 -2.35 0.3 -2.9 0.3 -3.2 0.05 -3.45 -1.1 -4.25 Q-2.25 -5.15 -2.2 -6.05 L-1.65 -7.1 -0.3 -7.95 2.55 -8.25 Q4.55 -8.2 6.2 -7.1 6.7 -6.6 6.8 -5.95 6.85 -5.2 6.5 -4.65 L6.4 -4.55 5.4 -3.9 5.55 -3.95 5.5 -3.9 5.35 -3.85 5.2 -3.8 4.8 -3.65 4.1 -3.5 3.6 -3.45 3.3 -3.5 3.25 -3.5 2.95 -3.35 M5.05 -2.7 L5.55 -2.85 5.35 -2.85 5.5 -2.9 5.55 -2.95 5.75 -2.95 6.3 -3.25 7.0 -3.8 7.2 -3.9 7.3 -4.05 Q7.9 -4.9 7.8 -6.05 7.75 -6.85 7.3 -7.45 8.45 -6.7 8.6 -5.3 L8.75 -2.25 8.75 -2.2 8.75 -2.15 8.75 -2.05 8.75 -0.8 8.75 -0.1 8.7 1.4 8.6 0.95 7.85 2.5 6.6 4.25 5.6 5.45 Q4.15 6.95 2.85 7.55 L2.1 7.85 0.85 8.1 -3.45 8.3 Q-7.95 8.2 -8.65 6.95 L-8.75 7.0 -8.7 6.35 -8.65 6.2 -8.65 6.15 Q-8.45 4.6 -7.2 3.6 -4.0 0.85 -1.25 -3.1 L-0.8 -2.8 -0.85 -2.75 -1.25 -2.0 -1.95 -0.8 -3.35 1.4 -3.45 1.7 Q-3.4 2.85 -1.9 3.3 L0.5 3.05 Q0.95 3.2 1.5 2.45 L2.45 0.85 2.5 0.7 2.5 0.65 3.65 -2.45 4.2 -2.5 4.35 -2.5 4.5 -2.55 5.05 -2.7" fill="#911e79" fill-rule="evenodd" stroke="none"/>
    </g>
    <g id="sprite2" transform="matrix(1.0, 0.0, 0.0, 1.0, 8.75, 7.85)">
      <use height="15.75" transform="matrix(1.0, 0.0, 0.0, 1.0, -8.75, -7.85)" width="17.45" xlink:href="#shape2"/>
    </g>
    <g id="shape2" transform="matrix(1.0, 0.0, 0.0, 1.0, 8.75, 7.85)">
      <path d="M3.2 -3.1 L2.9 -2.95 2.7 -2.65 Q2.55 -1.65 1.6 0.55 L1.45 0.85 0.7 2.25 0.65 2.45 0.55 2.4 0.3 2.45 -1.7 2.75 Q-2.35 2.55 -2.45 2.15 L-1.15 0.15 -1.15 0.1 0.0 -1.9 0.0 -1.95 0.25 -2.5 0.25 -2.8 0.0 -3.05 -1.15 -3.85 Q-2.3 -4.75 -2.25 -5.65 -2.2 -6.25 -1.7 -6.7 L-0.35 -7.55 2.5 -7.85 Q4.5 -7.8 6.15 -6.7 6.65 -6.2 6.75 -5.55 6.8 -4.8 6.45 -4.25 L6.35 -4.15 Q5.95 -3.75 5.35 -3.5 L5.5 -3.55 5.45 -3.5 5.3 -3.45 5.15 -3.4 4.75 -3.25 4.05 -3.1 3.55 -3.05 3.25 -3.1 3.2 -3.1 M7.75 -5.65 Q7.7 -6.45 7.25 -7.05 8.4 -6.3 8.55 -4.9 L8.7 -1.85 Q8.25 -3.2 7.25 -3.65 7.85 -4.5 7.75 -5.65 M3.35 1.2 L3.35 1.25 5.75 1.4 Q4.75 3.5 1.85 6.2 -0.7 7.9 -4.25 7.9 -6.7 7.9 -8.75 6.75 L-8.7 6.6 -8.7 6.55 Q-8.5 5.0 -7.25 4.0 -4.05 1.25 -1.3 -2.7 L-0.85 -2.4 -0.9 -2.35 -1.3 -1.6 -1.75 -1.35 -2.5 -0.65 -2.0 -0.4 -3.4 1.8 -3.5 2.1 Q-3.45 3.25 -1.95 3.7 L0.45 3.45 Q0.9 3.6 1.45 2.85 L2.4 1.25 2.45 1.1 3.35 1.2" fill="#ff20ee" fill-rule="evenodd" stroke="none"/>
    </g>
    <g id="sprite3" transform="matrix(1.0, 0.0, 0.0, 1.0, 3.35, 5.75)">
      <use height="11.55" transform="matrix(1.0, 0.0, 0.0, 1.0, -3.35, -5.75)" width="6.7" xlink:href="#shape3"/>
    </g>
    <g id="shape3" transform="matrix(1.0, 0.0, 0.0, 1.0, 3.35, 5.75)">
      <path d="M3.35 -5.75 Q1.7 -4.55 1.1 -1.8 L1.0 -1.5 -0.15 2.2 -1.7 5.55 -3.35 5.8 -2.05 3.45 Q-1.05 1.15 -0.3 -1.65 L-0.25 -2.0 Q0.15 -3.8 1.05 -5.05 L1.7 -5.2 2.4 -5.35 2.1 -5.35 2.3 -5.4 2.4 -5.45 2.65 -5.45 3.35 -5.75" fill="#ffffff" fill-rule="evenodd" stroke="none"/>
    </g>
    <g id="sprite4" transform="matrix(1.0, 0.0, 0.0, 1.0, 1.55, 3.75)">
      <use height="7.5" transform="matrix(1.0, 0.0, 0.0, 1.0, -1.55, -3.75)" width="3.15" xlink:href="#shape4"/>
    </g>
    <g id="shape4" transform="matrix(1.0, 0.0, 0.0, 1.0, 1.55, 3.75)">
      <path d="M1.55 -3.7 L1.6 -3.75 1.6 -2.5 1.6 -1.8 1.3 -1.2 0.7 0.75 0.7 0.8 -0.55 2.55 -1.55 3.75 -0.8 1.75 0.15 -1.7 Q0.55 -2.7 1.55 -3.7" fill="#e3bbd8" fill-rule="evenodd" stroke="none"/>
    </g>
    <g id="sprite5" transform="matrix(1.0, 0.0, 0.0, 1.0, 8.75, 4.8)">
      <use height="9.6" transform="matrix(1.0, 0.0, 0.0, 1.0, -8.75, -4.8)" width="17.45" xlink:href="#shape5"/>
    </g>
    <g id="shape5" transform="matrix(1.0, 0.0, 0.0, 1.0, 8.75, 4.8)">
      <path d="M8.7 -4.35 Q8.6 -1.95 8.15 -1.1 L8.05 -0.95 Q6.75 1.4 4.9 2.85 L3.75 3.6 3.7 3.65 2.9 4.05 2.05 4.4 1.2 4.6 1.0 4.65 0.55 4.7 0.35 4.75 0.25 4.75 -0.05 4.8 -7.35 4.25 -7.9 3.95 -8.55 3.3 -8.75 1.75 -8.75 1.55 -8.75 1.5 -8.75 1.25 -8.65 1.2 Q-7.95 2.45 -3.45 2.55 L0.85 2.35 2.1 2.1 2.85 1.8 Q4.15 1.2 5.6 -0.3 L6.6 -1.5 7.85 -3.25 8.6 -4.8 8.7 -4.35" fill="#2d001a" fill-rule="evenodd" stroke="none"/>
    </g>
  </defs>
</svg>
